X: 4544
T: Boscastle Breakdown, The
R: hornpipe
M: 4/4
K: Gmajor
|:G2 GB d2 B2|cdef g3A|G2 GB d2 B2|A2 A2 A4|
G2 GB d2 B2|cdef g4|dgfe dcBA|G2 B2 G4:|
|:gdBd gdBd|gece gecg|gdBd gdBd|B2 A2 A4|
gdBd gdBd|gece gece|dgfe dcBA|G2 B2 G4:|

